icons/desktop/15/pin-fill-15.svg

<svg width="15" height="15" viewBox="0 0 15 15" fill="none" xmlns="http://www.w3.org/2000/svg">
<path d="M13.5313 12.472L10.4643 9.405L10.5043 9.366C11.0463 8.787 11.6103 8.148 12.1873 7.379C12.8183 6.538 12.1813 5.238 11.0793 5.141L8.56226 4.92L6.69626 3.054C6.88626 2.908 7.06926 2.752 7.26326 2.613C7.60026 2.372 7.67926 1.904 7.43826 1.567C7.19826 1.231 6.72926 1.152 6.39226 1.392C5.42926 2.079 4.51826 2.851 3.68326 3.685C2.84626 4.521 2.07526 5.433 1.39026 6.395C1.15026 6.732 1.22926 7.201 1.56726 7.441C1.69926 7.535 1.85026 7.58 2.00126 7.58C2.23526 7.58 2.46726 7.471 2.61326 7.265C2.75226 7.07 2.90926 6.886 3.05526 6.695L4.92226 8.562L5.14326 11.079C5.23926 12.169 6.51826 12.832 7.35126 12.209C8.00126 11.723 8.68126 11.14 9.36526 10.501L9.40326 10.463L12.4723 13.533C12.6183 13.679 12.8103 13.753 13.0023 13.753C13.1943 13.753 13.3863 13.68 13.5323 13.533C13.8253 13.24 13.8243 12.765 13.5313 12.472Z" fill="black"/>
</svg>

<!-- This Source Code Form is subject to the terms of the Mozilla Public
   - License, v. 2.0. If a copy of the MPL was not distributed with this
   - file, You can obtain one at http://mozilla.org/MPL/2.0/. -->
<svg xmlns="http://www.w3.org/2000/svg" width="15" height="15" fill="context-fill" fill-opacity="context-fill-opacity" viewBox="0 0 15 15">
    <path d="m13.531 12.472-3.067-3.067.04-.039a24 24 0 0 0 1.683-1.987c.631-.841-.006-2.141-1.108-2.238L8.562 4.92 6.696 3.054c.19-.146.373-.302.567-.441a.75.75 0 1 0-.87-1.221A21.3 21.3 0 0 0 1.39 6.395a.75.75 0 0 0 1.222.87c.14-.195.296-.379.442-.57l1.867 1.867.221 2.517c.096 1.09 1.375 1.753 2.208 1.13.65-.486 1.33-1.069 2.014-1.708l.038-.038 3.07 3.07a.75.75 0 0 0 1.06 0 .75.75 0 0 0-.002-1.061" />
</svg>
